X:398
T: Changge sheli hao chashan
N: C1723
O: China, Hubei Macheng
S: I, 374]
R: Wuge, Dengdiao, Huatiao]
M: 2/4
L: 1/16
K: C
e8- | e8
e2e2e2e2 | e4e2A2 | A2A2G4 | A2A2G4
A2e2 | A2c2A2c2 | gee2g2z2
e2ege4 | cdA2A4 | c4 | e2g2e4 | e2e2d4
e3ge2e2 | g4c4 | A2A2G4
e2g2e2g2 | e2A2G4
c4 | e4e4 | A2A2G4 | A2c2A2c2 | ceAAG2z2
c3e | A3cA3c | ceA2A4
egege2e2 | ege2e2e2 | g6e2 | e3ge2A2 | A2A2G4

